X: 21372
T: The BRAES O' MARR
R: Strathspey
B: W. Hamilton "Universal Tune-Book" Vol. 2 Glasgow 1846 p.137 #2
S: http://s3-eu-west-1.amazonaws.com/itma.dl.printmaterial/book_pdfs/hamiltonvol2web.pdf
Z: 2016 John Chambers <jc:trillian.mit.edu>
M: C
L: 1/8
K: D
% - - - - - - - - - - - - - - - - - - - - - - - - -
(A/G/) |\
F<AA>B d<e{de}f>e | {c}d>BB>A B>d {c}B(A/G/) |\
F<AA>B d>e{de}f>d | edgf {f}e2d :: (A/G/) |\
FAAD FD {B}A(G/F/) | GBB2 GE {c}B(A/G/) |
FAA2 FD {B}A(G/F/) | G(B/G/) F(d/F/) E2 D(A/G/) |\
FAAD FD {B}A(G/F/) | GBB2 GE {c}B(A/G/) |\
FAA>G FAdg | fda>f e2d |]| (A/G/) |
FAA>B d>e{de}f>e | dBB>A B>d {c}B(A/G/) |\
FAA>B d>e{de}f>d | eda>f e2d :|] (a/g/) |\
faad fdad | gbb>e gebe |
faa>g fdaf | g(b/g/) f(a/f/) e2 d(a/g/) |\
faa>d fdad | gbb>e gebe |\
f<ae<f d<eB<d | {B}A(G/F/) (d/c/d/F/) E2D |]
% - - - - - - - - - - - - - - - - - - - - - - - - -

%%sep 1 1 500
%%sep 1 1 500

